X:1
T:Title
%%score 1 { 2 | 3 }
L:1/8
M:2/2
K:Bb
V:1 treble nm="Grand Piano, Soprano"
V:2 bass nm="Choir Pad, Sahara, Robert Lowry, 1884"
V:3 bass 
V:1
 [DF]4 [EG]2 [EA]2 | [DB]4 [DF]4 | [EG]2 [GB]2 [GB]2 [EG]2 | [DF]8 | [CE]4 [DF]2 [EG]2 | %5
w: By~Robert~Lowry,~1884 * *|||||
 [DF]4 [CE]4 | [DF]2 [B,D]2 [CE]2 [A,F]2 | [B,D]8 | [DF]4 [EG]2 [DF]2 | [DB]4 [DF]4 | %10
w: |||||
 [Fd]2 [Ec]2 [DB]2 [FA]2 | [EG]8 | [Ec]4 [GB]2 [EG]2 | F4 [FB]4 | [FA]2 [GB]2 [FA]2 [=EG]2 | %15
w: |||||
 F6 [EF]2 | [Ec]6 [Fd]2 | [Ec]2 [DB]4 [DB]2 | [GB]6 [Gc]2 | [FB]2 [FA]4 [EF]2 | %20
w: |||||
 [DB]4 [Gd]2 [_Af]2 | [Gf]2 [Ge]4 [Gc]2 | [FB]4 [EA]4 | [DB]8 |] %24
w: ||||
V:2
 B,4 B,2 F,2 | F,4 B,4 | B,4 B,4 | B,8 | A,4 A,2 A,2 | B,4 F,4 | F,4 F,4 | F,8 | B,4 B,2 B,2 | %9
 F,4 B,4 | B,4 B,4 | B,8 | G,4 B,2 B,2 | B,4[K:treble] D4 | C4 C2 B,2 | .A,8 | %16
 z2[K:bass] A,2 A,2 A,2 | B,2 .B,6 | z2 B,2 B,2[K:treble] E2 | D2 .C6 | z2 B,2 B,2 B,2 | %21
 B,2 B,4 E2 | D2 D2 C2 C2 | B,8 |] %24
V:3
 B,,4 E,2 C,2 | B,,4 B,,4 | E,4 E,4 | B,,8 | F,4 F,2 F,2 | B,,4 B,,4 | z8 | B,,8 | B,,4 B,,2 B,,2 | %9
 B,,4 B,,4 | B,,4 B,,2 D,2 | E,8 | E,4 E,2 E,2 | D,4 B,,4 | C,4 C,4 | .F,8 | z2 F,2 F,2 F,2 | %17
 B,,2 .B,,6 | z2 E,2 E,2 C,2 | F,2 .F,6 | z2 B,,2 B,,2 D,2 | E,2 E,4 E,2 | F,2 F,2 F,2 F,2 | %23
 B,,8 |] %24

